X:1
T:A Welsh Lullaby
T:A Welsh Lullaby
T:Copyright © CPDL
T:Copyright © CPDL
T:Copyright © CPDL
T:Copyright © CPDL
T:Copyright © CPDL
T:Copyright © CPDL
Z:Copyright © CPDL
%%score 1 ( 2 3 ) ( 4 5 )
L:1/8
Q:1/4=50
M:4/4
K:F
V:1 treble nm="P1"
V:2 treble nm="P2"
V:3 treble 
V:4 bass nm="P3"
V:5 bass 
V:1
"^Editor: John Henry Fowler""^(  Revision:   4 - 22 - 2008  )""^Andantino tranquillo.""^Translated from the Welsh by poet E. O. Jones""^From \"English Lyrics\" -  Set 5 -  Number 7" z8 | %1
w: |
"^Charles Hubert Hastings Parry""^( 1848 - 1918 )" z8 | z8 | z8 |!p! c8 | c8 | (c2 f6) | %7
w: |||Sleep,|sleep,|sleep, _|
 c6 z!p! c | cAGF (GA/F/) Gc | c3 A!<(! c3!<)! c |!>(! f3!>)! G c3 A | GAGc G>A FA | %12
w: sleep~! All|na- ture now is sleep- * * ing Her|sons in sleep, their|eye- lids close, All|liv- ing things in sweet re- pose are|
 G2 A2"^dim." (B>c dB | c2) F4 z2 | z8 | c8 |!<(! (c2 f2!<)!!>(! ed c!>)!A | d2 f4) F2 | c8 | %19
w: sleep- ing, sleep~~\-- * * *|* \-~~ing~!||Sleep,|ba- * * * * *|* * by,|sleep~!|
!p! (cA)GF (GA/)F/ Gc- | cAGF!<(! GBA!<)!F | f8 |!p! F2 F_A G3 (B | %23
w: Peace _ o'er thee watch _ be keep- ing|_ If from my bo- som thou art|torn,|Low in grave I'll lie|
 _A!<(!c!<)!"^poco rit." _e2-!>(! e_d!>)!c)B |"^a tempo" c4 z4 | z2!p! (c2- cdcA | %26
w: _ _ _ _ _ _ for-|\-~lorn.|Sleep- * * * *|
!<(! d2)!<)!!>(! f4!>)!!p! F2 |!<(! (G2!<)! B2-"^dim." BGBF |"^rit." G2 B2- BA) (GA) | %29
w: * \-~~ing, Ah~!|sleep- * * * * *|* * * * \-~~ing, _|
 (F"^dim."A) c6- | c8- | !fermata!c8 |] %32
w: sleep- * ing.|_||
V:2
 (cAGF) (GA/F/) G2 | (cAGF) (GA/F/) G2 | (fdcB) (cAGF) | (!>!GA/F/) (!>!GA/F/) (!>!GA/F/ AG) | %4
 (cAGF) (GA/F/ G2 | cAGF) (GA/F/ G2 | fdcB) (cAGF) | (!>!GA/F/) (!>!GA/F/) (!>!GA/F/ AG) | %8
 F z z2 z4 | z (A GF) (GB/G/) (Ac/A/) | (fdcB) (cAGF) | (GA/F/ GF/E/ EG/E/ FA/)F/ | %12
 (G_EDC DE/C/ D=E) | (FDCB,) (DCFA) | (!>!GA/F/) (!>!GA/F/) (!>!GA/F/ Gc-) | (cAGF) (GA/F/) G2 | %16
 (cAGF) (GB/G/) (Ac/)F/- | (fdcB) (cAGF) | (GA/F/) (GA/F/) (GA/F/ AG) | F[K:bass] x x2 x4 | %20
 z/ (C,/C/C,/ B,/C,/A,/C,/ B,/!<(!C,/G,/C,/ C/C,/A,/!<)!C,/) | (!>!F_DCB,) (!>!FCB,_A,) | %22
 (_D_E/C/) (DE/C/) (DE/C/) (DE/C/) | (C_E/C/) (B,C/_A,/) (G,A,/F,/) (G,B,/G,/) | %24
 ([Fc]AGF) (GA/F/ G2) | ([Fc]AGF) (GB/G/) (Ac/A/) | (!>!fdcB) (cA!>)!!>(!GF) | %27
 (GEDC!>(! DE/C/ DF/!>)!D/) | (GEDC DF/D/ ED/E/) | (FCB,A,)!>)!!>(! (G,A,/F,/) (G,A,/F,/) | %30
 (G,2 A,F,) (B,A,G,F,) | !fermata!A,8 |] %32
V:3
 F2 z2 (D3 E) | F2 z2 D3- E | F6 z2 | DC DC DC DE | F2 z2 (D3 E) | F2 z2 (D3 E) | F6 C2 | %7
 DC DC DC DE | x8 | x8 | F4 F2 z2 | C4 C4 | x8 | x8 | C4 D3 E | F2 z2 D3- E | x8 | F6 C2 | C6 DE | %19
 x[K:bass] x7 | x8 | F,4 F,4 | (!>!F,4 G,2) z2 | _E,4 x4 | =A,2 x2 D3 E | A,2 x2 (E2 F2) | F6 z2 | %27
 x8 | x8 | F4 x4 | x8 | x8 |] %32
V:4
!p! A,/!>(!C,/C/C,/!>)! B,/C,/A,/C,/ B,/C,/A,/C,/ B,/C,/G,/C,/ | %1
!>(!!>(! A,/C,/C/!>)!!>)!C,/ B,/C,/A,/C,/ B,/C,/A,/C,/ B,/C,/G,/C,/ | %2
!mf! A,/C,/"^dim."!>(!B,/C,/ A,/C,/G,/C,/ A,/C,/C/C,/ B,/C,/A,/!>)!C,/ | %3
!pp! B,/C,/A,/C,/ B,/C,/A,/C,/ B,/C,/A,/C,/ C/C,/B,/C,/ | %4
 A,/C,/C/C,/ B,/C,/A,/C,/ B,/C,/A,/C,/ B,/C,/G,/C,/ | %5
 A,/C,/C/C,/ B,/C,/A,/C,/ B,/C,/A,/C,/ B,/C,/G,/C,/ | %6
!mf! A,/C,/B,/!>(!C,/ A,/C,/G,/C,/ A,/C,/C/C,/ B,/C,/!>)!A,/C,/ | %7
!pp! B,/C,/A,/C,/ B,/C,/A,/C,/ B,/C,/A,/C,/ C/C,/B,/C,/ | %8
!p! ([F,,F]/C,/C/C,/ B,/C,/A,/C,/ B,/C,/A,/C,/ B,/C,/G,/C,/ | %9
 [F,,A,]/)C,/C/C,/ B,/C,/A,/C,/ B,/C,/G,/C,/ C/C,/A,/C,/ | %10
 F,,/C,/B,/C,/ A,/C,/G,/C,/ A,/C,/C/C,/ B,/C,/A,/C,/ | %11
 F,,/C,/F,/C,/ E,/C,/A,/C,/ G,/C,/B,/C,/ A,/C,/F,/C,/ | %12
 F,,/C,/C/C,/ B,/C,/A,/C,/!>(! B,/C,/B,/A,/ B,/C,/G,/C,/ | %13
 F,,/C,/!>)!B,/C,/ A,/C,/G,/C,/!<(! B,/C,/A,/C,/ C/C,/A,/!<)!C,/ | %14
 F,,/C,/F,/C,/"^dim." E,/C,/F,/C,/ B,/C,/A,/C,/ B,/C,/G,/C,/ | %15
!p! F,,/C,/C/C,/ B,/C,/A,/C,/ B,/C,/A,/C,/ B,/C,/G,/C,/ | %16
 F,,/C,/C/C,/ B,/C,/A,/C,/ B,/C,/G,/C,/ C/C,/A,/C,/ | %17
 F,,/C,/B,/C,/ A,/C,/G,/C,/ A,/C,/C/C,/ B,/C,/A,/C,/ | %18
 B,/C,/A,/C,/ B,/C,/A,/C,/ B,/C,/A,/C,/ C/C,/B,/C,/ | %19
!p! F,,/C,/C/C,/ B,/C,/A,/C,/ B,/C,/A,/C,/ B,/C,/G,/C,/ | F,,4 _E,,4 | %21
!>(! D,,/F,,/F,/F,,/ _E,/F,,/_D,/F,,/!>)!!>)!!>(! C,,/F,,/_A,,/F,,/ D,/F,,/C,/F,,/ | %22
!p! B,,,/F,,/F,/F,,/ B,/B,,/_A,/B,,/"^dim."!>)!!>(! _E,,/B,,/_E,/B,,/ F,/B,,/G,/B,,/ | %23
 A,,,/_E,,/C,/E,,/ _D,/E,,/C,/"^poco rit."E,,/ B,,,/F,,/D,/F,,/ _E,/F,,/D,/F,,/ | %24
!p! F,,,/"^a tempo"C,/C/C,/ B,/C,/A,/"^dim."C,/!>(! B,/C,/A,/C,/!>)! B,/C,/G,/C,/ | %25
 F,,/C,/C/C,/ B,/C,/"^poco cresc."A,/C,/!>(! B,/C,/G,/C,/!>)! C/C,/A,/C,/ | %26
 F,,/C,/B,/C,/ A,/C,/G,/"^dim."C,/!>(! A,/C,/C/C,/ B,/C,/A,/C,/!>)! | %27
 F,,/C,/G,/C,/ F,/C,/E,/"^dim."C,/!>(! F,/C,/G,/C,/!>)! F,/C,/A,/C,/ | %28
 F,,/C,/"^rit."B,/C,/ A,/C,/G,/C,/!>(! A,/C,/C/C,/!>)! B,/C,/C,/F,,/ | %29
 (F,,/C,/F,/"^dim."E,/ D,/F,/C,/F,/)!>(! (B,,/F,/C,)!>)! (B,,/F,/C,) | (B,,F,,C,F,,) (D,F,,E,D,) | %31
!ped! (C,2 !fermata!F,,,6) |] %32
V:5
 x8 | x8 | x8 | x8 | x8 | x8 | x8 | x8 | F,,2 x2 F,,4 | F,,2 x2 x4 | F,,2 x2 x4 | F,,2 x2 x4 | %12
 F,,2 x2 x4 | F,,2 x2 x4 | F,,2 x2 x4 | F,,2 x2 x4 | F,,2 x2 x4 | F,,2 x2 x4 | x8 | F,,2 x2 F,,4 | %20
 x8 | _D,,4 C,,4 | B,,,4 _E,,4 | A,,,4 B,,,4 | F,,,2 x2 x2 x2 | F,,2 x2 x2 x2 | F,,2 x2 x2 x2 | %27
 F,,2 x2 x2 x2 | F,,2 x2 x2 x2 | F,,2 x2 x2 x2 | x8 | x8 |] %32

